X:1
T:Jerusalem
T:Charles Hubert Hastings Parry (1848-1918)
T:Jerusalem
T:Public Domain
T:Public Domain
T:Public Domain
T:Public Domain
T:Public Domain
C:Charles Hubert Hastings Parry (1848-1918)
Z:Public Domain
%%score 1 ( 2 3 ) ( 4 5 )
L:1/8
M:3/4
K:D
V:1 treble 
V:2 treble 
V:3 treble 
V:4 bass 
V:5 bass 
V:1
 z6 x | z6 | z6 x5/2 | z3 D FA | B3 d B(A/G/) | A4 BA/G/ | AF E2 D2 | B,3!p! D FA | B3 d c(B/A/) | %9
w: |||And did those|feet in an- cient *|time Walk up- on|Eng- land’s mount- ains|green? And was the|Ho- ly Lamb of *|
 B3 B cF | A^G F2 E2 | A3!mf! E EF | G3 B A>E | G3 E GA | B3 d =cA | B3 G Bd | e>d c2 c>B | %17
w: God On Eng- land’s|plea- sant pas- tures|seen? And did the|coun- te- nance di-|vine Shine forth up-|on our cloud- ed|hills? And was Je-|ru- sa- lem build- ed|
 A3 A dB | A>B F2 E2 | D4 z2 x | z6 | z6 | z2 D2 FA | B3 d B(A/G/) | A4 BA/G/ | AF E2 D2 | %26
w: here A- mong these|dark sa- tan- ic|mills?|||Bring me my|bow of burn- ing *|gold! Bring me my|ar- rows of de-|
 B,3 D FA | B2 d2 c(B/A/) | B3 B cF | A>^G F2 E2 | A3 E EF | G3 B A>E | G3 E GA | B2 d2 =cA | %34
w: sire! Bring me my|spear! O clouds, un- *|fold! Bring me my|char- i- ot of|fire! I will not|cease from men- tal|fight, Nor shall my|sword sleep in my|
 B3 G Bd | e3 d c>B | A3 A dB | AB F2 E2 | D6- | D2 z2 z2 | z4 x2 |] %41
w: hand, Till we have|built Je- ru- sa-|lem In Eng- land’s|green and plea- sant|land.|||
V:2
 [Adfa]3 [DFA] D z/ F/ x | [B,-^DFB-][B,-EB-] [B,EAB][DAB] [EGB][G^Ae] | %2
 [EF-B-e][DFBd] cB [B,D] z/ G/ x5/2 | [A,DFA]3 [F,A,D] [A,DF][A,EA] | %4
 [D-FB-]2 [DGB][D-G-d] [DGB]A/G/ | [A,DF]F [CE]D [B,DB]A/G/ | AF E2 D2 | %7
[K:bass] [D,G,B,]3 [D,,F,,] [C,,F,,A,,][F,,A,,C,] | %8
 [F,,A,,][E,,G,,] [G,,B,,][F,,A,,F,] [A,,C,E,]D,/C,/ | %9
 [F,,-A,,D,-]2 [F,,^B,,-D,][F,,B,,D,] [C,E,]A,, | %10
 C,^B,, [C,,E,,A,,]2 [^B,,,-E,,G,,-][B,,,D,,F,,G,,] | %11
 [C,,-F,,A,,C,-][C,,-E,,G,,C,-] [C,,D,,F,,C,][C,,E,,G,,] [D,,G,,][C,,^F,,A,,] | %12
 [B,,,-G,,B,,-][B,,,-D,,B,,-] [B,,,G,,B,,][F,,D,] C,>G,, | %13
 [D,,G,,B,,]3 [B,,,D,,G,,] [C,,G,,B,,][E,,B,,C,] | [F,,B,,D,]3 [A,,C,F,] [G,,B,,=E,][F,,A,,C,] | %15
 C,F,, B,,[D,,F,,B,,] [D,,F,,B,,][F,,B,,D,] | %16
 [D,G,]>[A,,B,,F,] [C,E,]2 [E,,-C,E,-][E,,G,,-E,]/[D,,G,,D,]/ | %17
 C,,[E,,B,,] [F,,A,,][G,,C,] [A,,F,][B,,D,] | [C,,F,,C,]F,, [D,,F,,A,,]2 [B,,,E,,G,,]2 | %19
 [A,,,C,,F,,]2 [C,F,A,C]3 [F,,A,,C,] x | %20
 [F,,B,,][=E,,^F,,A,,] [D,,-F,,A,,D,-][D,,G,,D,] [^E,,B,,-D,-^E,]>[G,,B,,D,G,] | %21
 [G,,A,,-D,-G,][F,,A,,D,F,] [E,,A,,-G,][D,,A,,D,] C,>B,, | %22
 [C,,F,,A,,C,]2 [A,,,C,,F,,]2 [C,,F,,A,,][E,,G,,C,] | %23
 [D,,F,,][E,,G,,] [F,,A,,][D,,A,,F,] [F,,B,,D,][D,,-F,,-C,]/[D,,F,,B,,]/ | %24
 [C,,F,,]G,, B,,A,, [F,,D,][D,,-F,,-C,]/[D,,F,,B,,]/ | E,A,, C,,B,,, [A,,,D,,F,,]2 | %26
[K:bass] [D,-A,B,-]2 [D,G,B,][K:treble][F,B,D] [A,DF][DFA] | %27
 [B,DFB]2 [D-FB-d-][D^GBd] [CFAc][C-F-B]/[CFA]/ | [DF]E F[D^GB] [CAc][CF] | %29
 A>^G [A,CF]2 [A,B,][^G,D] | [A,-DFA-][A,-CEA-] [A,B,DA][A,CE] [B,E][A,^DF] | [G,EG]3 [DEB] A>E | %32
 [G,B,EG]3 [G,B,E] [B,EG][CGA] | [DGB]2 [GB][FA] [EG=c][DFA] | [DAB][GB-] B[B,DG] [DGB][DAd] | %35
 ED [CA][DBd] [CE] z/ B/ | [DF][CG] [DF][EA] [Fd][GB] | [A,Dc][B,DFd] [B,DF]2 [CE]2 | %38
 [F,A,D]3 [F,A,D] [A,DF][A,EA] | [D-F]2 [DG][Dd] [GB-d-g][FB-d-f]/[EBde]/ | [FAdf]6 |] %41
V:3
 x4 G3/2^D x/ | x6 | x2 [DF]2 A3/2E x2 | x6 | x5 [DE] | A4 D x | [C,,F,,]2 [A,,,D,,]4 | %7
[K:bass] x6 | D,3 x [E,,A,,] x | x3 E,,2 x | [C,,F,,]2 x4 | x6 | x4 [=E,,G,,]2 | x6 | x6 | D,3 x3 | %16
 B,,2- x4 | C,3 F,,2 x | x6 | x7 | x6 | x4 [D,,F,,]2 | x6 | D,3 x3 | C,4 x2 | %25
 [C,,F,,]2 [E,,G,,]2 x2 |[K:bass] x3[K:treble] x3 | x6 | B3 x3 | [A,D]2 E2 x2 | x6 | x4 [=CE]2 | %32
 x6 | x d2 x3 | D2 x4 | [GBe]3 c3/2[CE] x/ | A3 D2 x | x6 | x6 | B3 x3 | x6 |] %41
V:4
 z [F,,,F,,] z [D,F,] [F,G,][G,,,G,,] x | z [B,,E,B,] z [B,,^D,B,] z [G,^A,E] | %2
 z F, CB, [G,,D,]- z/ G,/ x5/2 | [D,,A,,F,]2 [F,,,D,,]2- D,C, | %4
 B,,A,, [G,,,G,,]-[G,,,-G,,-B,] [G,,,G,,D,-][B,,,B,,D,] | z A, G,F, G,-[G,B,] | %6
 [F,,D,]2 [B,,,B,,]3 [A,,,A,,] | [G,,,G,,]2 [G,,G,]-[G,,G,] [F,,F,][D,,D,] | %8
 B,,E, [E,G,][D,F,] [F,,C,A,]2 | [F,B,]2 ^G,2 [A,,C,A,]2 | [B,,,B,,]2 [C,,C,][D,,D,] [E,,E,]2 | %11
 [A,,,A,,]3 [A,,E,] [G,,E,][F,,B,,] | z B,, E,G, [A,,E,A,]2 | [E,,E,]2 [E,,,E,,]2 [E,,E,]2 | %14
 D,D, [G,B,][F,A,] [E,G,][F,A,] | [G,,,G,,]4 [G,,G,][F,,F,] | [E,,E,]2 [A,,A,]2 [G,,G,]2 | %17
 [F,,F,][E,,E,] [D,,D,][C,,C,] [B,,,B,,][G,,,G,,] | [F,,,F,,]2 [G,,,G,,]2 [A,,,A,,]2 | %19
 [D,,D,]2 z [B,,,B,,] z [D,F,A,] x | [B,,,B,,][A,,,A,,] [G,,,G,,]2 E,[G,B,C] | %21
 [B,,,B,,]2 [D,F,]2 A,>G, | [D,,A,,F,]2 D,,2- [D,F,][C,E,] | [D,,B,,D,]2 D,,F, [B,,D,G,]2 | %24
 [D,,A,,F,]G, B,A, [G,,D,B,]2 | [F,,D,]2 [B,,,B,,]3 [A,,,A,,] | [G,,,G,,]3 [G,,D,] F,,D,, | %27
 [B,,,B,,]2 F,^G, [F,,C,A,]2 | [B,,F,B,]3 [B,,,B,,] [A,,,A,,]2 | %29
 [B,,,F,,B,,]2 [C,,C,][D,,D,] [E,,E,]2 | [A,,,A,,]3 [A,,E,] [G,,E,][F,,B,,] | %31
 B,,2 [B,,G,]2 [A,,E,]2 | [E,,E,]2 [E,,,E,,]2 [E,,E,]2 | D,D, [G,B,][F,A,] [E,G,=C][D,A,C] | %34
 A,G, D,[G,,,G,,] [G,,G,][F,,F,] | [E,,E,]2 z B, A,[G,,G,] | %36
 [F,,F,][E,,E,] [D,,D,][C,,C,] [B,,,B,,][G,,,G,,] | [F,,,F,,]2 [G,,,G,,]2 [A,,,A,,]2 | z2 D,3 C, | %39
 B,,D, [B,,G,]2 [G,,D,B,]2 | [D,,D,]6 |] %41
V:5
 ([F,A,DF]3 [B,,,B,,]3 =C) | [G,,,G,,]2 [F,,,F,,]2 [E,,,E,,]2 | ([B,,,B,,]4 F,2) A,3/2[G,,C,D,] | %3
 x4 [F,,,D,,-]2 | D,,2 x4 | ([D,,D,]4 [G,,D,]2) | x6 | x6 | B,,,2 B,,2 x2 | B,,4 x2 | x6 | x6 | %12
 [E,,,E,,]4 x2 | x6 | D,,4 D,2 | x6 | x6 | x6 | x6 | x2 [F,A,DF]3 [B,,,B,,-]2 | %20
 [G,B,] x2 [E,,E,]2 x | x4 [G,,D,]2 | x3 D,,2 x | x6 | x6 | x6 | x4 D,2 | x2 B,2 x2 | x6 | x6 | %30
 x6 | E,,4 x2 | x6 | [D,,D,]2 D2 x2 | [G,,D,]3 x3 | x2 [A,,A,]3 x | x6 | x6 | [F,,,D,,]6 | %39
 D,,2 x4 | x6 |] %41

